material/.icons/material/numeric-0-box-outline.svg

<svg xmlns="http://www.w3.org/2000/svg" viewBox="0 0 24 24"><path d="M19 19V5H5v14h14m0-16a2 2 0 012 2v14a2 2 0 01-2 2H5a2 2 0 01-2-2V5a2 2 0 012-2h14m-8 4h2a2 2 0 012 2v6a2 2 0 01-2 2h-2a2 2 0 01-2-2V9a2 2 0 012-2m0 2v6h2V9h-2z"/></svg>

<?xml version="1.0" encoding="UTF-8"?><!DOCTYPE svg PUBLIC "-//W3C//DTD SVG 1.1//EN" "http://www.w3.org/Graphics/SVG/1.1/DTD/svg11.dtd"><svg xmlns="http://www.w3.org/2000/svg" xmlns:xlink="http://www.w3.org/1999/xlink" version="1.1" id="mdi-numeric-0-box-outline" width="24" height="24" viewBox="0 0 24 24"><path d="M19,19V5H5V19H19M19,3A2,2 0 0,1 21,5V19A2,2 0 0,1 19,21H5A2,2 0 0,1 3,19V5A2,2 0 0,1 5,3H19M11,7H13A2,2 0 0,1 15,9V15A2,2 0 0,1 13,17H11A2,2 0 0,1 9,15V9A2,2 0 0,1 11,7M11,9V15H13V9H11Z" /></svg>
